X: 10631
T: HEARTS OF OAK
%R: march
B: "Edinburgh Repository of Music" v.1 p.63 #1
F: http://digital.nls.uk/special-collections-of-printed-music/pageturner.cfm?id=87776133
Z: 2015 John Chambers <jc:trillian.mit.edu>
N: There's a final repeat symbol, but no begin repeats at all.
M: C
L: 1/8
K: C
G2 |\
!f!c2c>c c2e>d | c2B>A G3G |\
A2A>B c2c>d | e2f>d e3d |\
c2E>F G2A>B | c2E>F G2g2 |\
{f}e2d>c g2G>B | d2d>d F2 |]
!p!d>d |\
d2B>c d2g>f | e2c>d e3d |\
cBAe c<Az2 | c<c G>F E<C zG |\
ABcd {f}e2dc | g2G>B c2 :|

%%sep 2 1 500
%%sep 1 1 500

